X:1
T:His Wonderful Love
T:His Wonderful Love
T:Haldor Lillenas
T:Alice Crowell Hoffman, 1920
T:Public Domain Courtesy of the Cyber Hymnal™
T:Public Domain Courtesy of the Cyber Hymnal™
C:Haldor Lillenas
Z:Public Domain
Z:Courtesy of the Cyber Hymnal™
%%score ( 1 2 ) ( 3 4 )
L:1/8
Q:1/4=90
M:4/4
K:Ab
V:1 treble 
V:2 treble 
V:3 bass 
V:4 bass 
V:1
 EE | (z [CE])[CE] (z [CE])[CE] x2 | (z [DF])[DF] (z [DF])[DF] x2 | (z [CE])[CE] (z [EG])[EA] x2 | %4
w: 1.~If the|* love * of|* all * ag-|* es * since|
w: 2.~’Tis the|* cost- * li-|* est * love|* that * has|
w: 3.~’Tis a|* love * that|* will * help|* me * to|
 (z [=DB])[Dc] !fermata![EB]2 EE x | [Ec]2 [Ec][Ec] [FA]2 [=EB][EB] | [=EG]6 [EG][EG] | %7
w: * time was be- gun|Could be sud- den- ly weld-|ed or rolled|
w: * ev- er been known,|Yet He paid the great price,|and He paid|
w: * live my life here,|Be it ev- er so plea-|sant, or lone-|
 F2 GA [_DG]2 E[DF] | (z !fermata!E2) E E x2 | (z [C_E])[CE] (z [CF])[CF] x2 | %10
w: in- to one, It would be|* but a|* sha- * dow|
w: it a- lone, In the sha-|* dow of|* Cal- * va-|
w: ly and drear, To the trea-|* sures of|* life * ’tis|
 (z [EG])[EG] (z [FA])[FA] x2 | (z [Fd])[Fd] (z [D=B])[FB] x2 | [=Ec]2 [FA][EG] [CF]2 [CF][EG] | %13
w: * I * see,|* It * would|be but a sha- dow I|
w: * ry’s * tree,|* In * the|sha- dow of Cal- va- ry’s|
w: * the * key,|* To * the|trea- sures of life ’tis the|
 [FA]2 AA [FB]2 =BB | ([=Ec]4 !fermata![_EGd_e]2) ee | [F=d]2 [=DF][EG] [FA]2 [EG][DF] | [DB]6 || %17
w: see; By the side of His|love * when He|died in my stead, With a|sor-|
w: tree. It is bound- less as|time * and as|wide as all space, And it|takes|
w: key. It will pi- lot me|down * thro’ the|shades of the tomb, And will|snatch|
"^Refrain" [CE]2 | [Ec]2 [=D=B][Ec] [Ee]2 [E_d][Ec] | ([FB]4 [DF]2) [DF]2 | %20
w: row|torn heart and a thorn pierc-|èd * head,|
w: all|of man- kind with- in its|em- * brace,|
w: my|poor soul from e- ter- ni-|ty’s * doom,|
 [DB]2 [C=A][DB] [Dd]2 [Ec][DB] | (A4 E2) [CE][CE] | [Ec]2 [=D=B][Ec] [Ee]2 [_Ge]2 | %23
w: And His won- der- ful love|was * for me,|Yes, His won- der- ful|
w: But this won- der- ful love|was * for me,|Yes, His won- der- ful|
w: Yes, this won- der- ful love|was * for me,|Yes, His won- der- ful|
 [FA]2 [FA][FA] !fermata![Fd]2 [_Fd][Fd] | [Ec]2 [Ed]"^riten."[Ec] [=DFf]2 [_DG]2 | A4- [CA]2 |] %26
w: love was for me. * *|||
w: love was for me. His won-|der- ful love was for|me, His|
w: love was for me. * *|||
V:2
 x2 | (E2 C) x (E2 C) x | (F2 D) x (A2 D) x | (E2 C) x (A2 E) x | (B2 E) x5 | x8 | x8 | =D4 E x3 | %8
 (E4- B,CD) | (=E2 C) x (F2 C) x | (G2 E) x (A2 F) x | (d2 F) x (=B2 D) x | x8 | x2 F2 x F2 x | %14
 x8 | x8 | x6 || x2 | x8 | x8 | x8 | C6 x2 | x8 | x8 | x8 | C2 D2 x2 |] %26
V:3
 z2 | (z E,)E,E, (z A,)A,A, | z A,A,A, (z A,)A,A, | z z A,[B,,B,] [C,A,] x3 | %4
 z G,A,A, !fermata![E,G,]2 z2 | [A,,A,]4 C2 G,2 | (C,=E,G,D C2) z2 | B,4 B,2 G,A, | %8
 (z G,A,!fermata!B,) z2 x | (z G,)G,G, (z A,)A,A, | z CCC (z C)CC | z z F,F, D, x3 | %12
 C,G,CB, A,2 z2 | D,A,DA, D,A,DA, | (C,G,^F,A, !fermata![E,G,]2) z2 | B,,F,B,F, B,,F,B,A, | %16
 (E,,G,^F,A, [E,G,]2) || [A,,A,]2 | [A,,A,]2 [A,,A,][A,,A,] [C,A,]2 [B,,G,][A,,A,] | %19
 ([D,A,]2 [D,A,]2 [D,A,]2) [D,A,]2 | [E,G,]2 [E,^F,][E,G,] [E,G,]2 [E,A,][E,G,] | %21
 ([A,,A,]2 [A,,E,]2 [A,,A,]2) [A,,A,][A,,A,] | [A,,A,]2 [A,,A,][A,,A,] [C,A,]2 [A,,A,]2 | %23
 [D,A,]2 [D,A,][D,A,] !fermata![D,A,]2 [D,A,][D,A,] | [E,A,]2 [E,G,][E,A,] [B,,A,]2 [E,B,]2 | %25
 (A,2 G,F, [A,,E,]2) |] %26
V:4
 x2 | A,,2 x A,,2 x3 | D,2 x D,2 x3 | (A,,A,)A,A, x2 C,2 | (E,2 B,,2) x4 | x4 C,4 | x8 | %7
 A,2 B,,2 B,,4 | (E,4 E,2) x | C,2 x F,,2 x3 | C,2 x F,2 x3 | (B,,B,)B,B, x2 D,2 | x8 | x8 | x8 | %15
 x8 | x6 || x2 | x8 | x8 | x8 | x8 | x8 | x8 | x8 | A,,4- x2 |] %26

